assets/sonr-icons/warning-square.svg

<svg xmlns="http://www.w3.org/2000/svg" width="24" height="24" fill="none"><path fill="currentColor" d="M12 7a1 1 0 0 1 1 1v4a1 1 0 0 1-2 0V8a1 1 0 0 1 1-1m-1 9a1 1 0 1 1 2 0 1 1 0 0 1-2 0"/><path fill="currentColor" fill-rule="evenodd" d="M16.308 3.058C15.601 3 14.727 3 13.643 3h-3.286C9.274 3 8.4 3 7.692 3.058c-.729.06-1.369.187-1.961.488a5 5 0 0 0-2.185 2.185c-.303.592-.429 1.232-.488 1.961C3 8.4 3 9.274 3 10.358v3.286c0 1.083 0 1.957.058 2.665.06.729.187 1.369.488 1.961a5 5 0 0 0 2.185 2.185c.592.303 1.232.429 1.961.488.707.058 1.58.058 2.665.058h3.286c1.083 0 1.957 0 2.665-.058.729-.06 1.369-.186 1.961-.488a5 5 0 0 0 2.185-2.185c.302-.592.428-1.232.487-1.961.058-.707.058-1.581.058-2.665v-3.286c0-1.084 0-1.958-.058-2.666-.06-.729-.185-1.369-.487-1.961a5 5 0 0 0-2.185-2.185c-.592-.303-1.232-.429-1.961-.488M6.637 5.327c.264-.134.612-.227 1.217-.276C8.471 5.001 9.264 5 10.4 5h3.2c1.136 0 1.928.001 2.545.051.605.05.953.142 1.216.276a3 3 0 0 1 1.311 1.311c.134.263.227.611.276 1.216.05.616.051 1.409.051 2.545v3.2c0 1.137-.001 1.929-.051 2.546-.049.605-.142.953-.276 1.216a3 3 0 0 1-1.311 1.311c-.263.134-.611.226-1.216.276-.617.05-1.41.051-2.546.051h-3.2c-1.136 0-1.929-.001-2.545-.051-.606-.05-.954-.142-1.217-.276a3 3 0 0 1-1.311-1.311c-.134-.264-.226-.611-.276-1.216-.05-.617-.051-1.41-.051-2.546v-3.2c0-1.136.001-1.929.051-2.545.05-.605.142-.953.276-1.216a3 3 0 0 1 1.311-1.311" clip-rule="evenodd"/></svg>

<svg xmlns="http://www.w3.org/2000/svg" width="24" height="24" fill="none" viewBox="0 0 24 24"><path fill="#000" d="M12 7C12.552 7 13 7.448 13 8V12C13 12.552 12.552 13 12 13 11.448 13 11 12.552 11 12V8C11 7.448 11.448 7 12 7ZM11 16C11 15.448 11.448 15 12 15 12.552 15 13 15.448 13 16 13 16.552 12.552 17 12 17 11.448 17 11 16.552 11 16Z"/><path fill="#000" fill-rule="evenodd" d="M16.308 3.058C15.601 3 14.727 3 13.643 3H10.357C9.274 3 8.4 3 7.692 3.058C6.963 3.118 6.323 3.245 5.731 3.546C4.79 4.026 4.025 4.79 3.546 5.731C3.243 6.323 3.117 6.963 3.058 7.692C3 8.4 3 9.274 3 10.358V13.644C3 14.727 3 15.601 3.058 16.309C3.118 17.038 3.245 17.678 3.546 18.27C4.026 19.211 4.79 19.976 5.731 20.455C6.323 20.758 6.963 20.884 7.692 20.943C8.39898 21.001 9.27294 21.001 10.3569 21.001H13.643C14.726 21.001 15.6 21.001 16.308 20.943C17.037 20.883 17.677 20.757 18.269 20.455C19.21 19.976 19.975 19.211 20.454 18.27C20.756 17.678 20.882 17.038 20.941 16.309C20.999 15.602 20.999 14.728 20.999 13.644V10.358C20.999 9.274 20.999 8.4 20.941 7.692C20.881 6.963 20.756 6.323 20.454 5.731C19.975 4.79 19.21 4.025 18.269 3.546C17.677 3.243 17.037 3.117 16.308 3.058ZM6.637 5.327C6.901 5.193 7.249 5.1 7.854 5.051C8.471 5.001 9.264 5 10.4 5H13.6C14.736 5 15.528 5.001 16.145 5.051C16.75 5.101 17.098 5.193 17.361 5.327C17.926 5.614 18.385 6.073 18.672 6.638C18.806 6.901 18.899 7.249 18.948 7.854C18.998 8.47 18.999 9.263 18.999 10.399V13.599C18.999 14.736 18.998 15.528 18.948 16.145C18.899 16.75 18.806 17.098 18.672 17.361C18.385 17.926 17.926 18.385 17.361 18.672C17.098 18.806 16.75 18.898 16.145 18.948C15.528 18.998 14.735 18.999 13.599 18.999H10.399C9.263 18.999 8.47 18.998 7.854 18.948C7.248 18.898 6.9 18.806 6.637 18.672C6.072 18.385 5.613 17.926 5.326 17.361C5.192 17.097 5.1 16.75 5.05 16.145C5 15.528 4.999 14.735 4.999 13.599V10.399C4.999 9.263 5 8.47 5.05 7.854C5.1 7.249 5.192 6.901 5.326 6.638C5.613 6.073 6.072 5.614 6.637 5.327Z" clip-rule="evenodd"/></svg>
